Newaita-dark/apps/64/blender.svg

<?xml version="1.0" encoding="UTF-8"?>
<svg xmlns="http://www.w3.org/2000/svg" xmlns:xlink="http://www.w3.org/1999/xlink" width="64pt" height="64pt" viewBox="0 0 64 64" version="1.1">
<defs>
<linearGradient id="linear0" gradientUnits="userSpaceOnUse" x1="254" y1="233.500015" x2="254" y2="254.666672" gradientTransform="matrix(0.125012,0,0,0.125012,0.661516,26.877566)">
<stop offset="0" style="stop-color:rgb(0%,0%,0%);stop-opacity:0.27451;"/>
<stop offset="1" style="stop-color:rgb(0%,0%,0%);stop-opacity:0;"/>
</linearGradient>
<radialGradient id="radial0" gradientUnits="userSpaceOnUse" cx="450.908936" cy="189.579361" fx="450.908936" fy="189.579361" r="21.166656" gradientTransform="matrix(0.000000348341,-0.156265,-0.281277,-0.000000203077,91.692387,127.190673)">
<stop offset="0" style="stop-color:rgb(0%,0%,0%);stop-opacity:0.313725;"/>
<stop offset="0.222222" style="stop-color:rgb(0%,0%,0%);stop-opacity:0.27451;"/>
<stop offset="1" style="stop-color:rgb(0%,0%,0%);stop-opacity:0;"/>
</radialGradient>
<radialGradient id="radial1" gradientUnits="userSpaceOnUse" cx="450.908936" cy="189.579361" fx="450.908936" fy="189.579361" r="21.166656" gradientTransform="matrix(-0.000000348341,0.156265,0.281277,0.000000203077,-17.601977,-15.054956)">
<stop offset="0" style="stop-color:rgb(0%,0%,0%);stop-opacity:0.313725;"/>
<stop offset="0.222222" style="stop-color:rgb(0%,0%,0%);stop-opacity:0.27451;"/>
<stop offset="1" style="stop-color:rgb(0%,0%,0%);stop-opacity:0;"/>
</radialGradient>
<radialGradient id="radial2" gradientUnits="userSpaceOnUse" cx="450.908936" cy="189.579361" fx="450.908936" fy="189.579361" r="21.166656" gradientTransform="matrix(-0.000000348341,-0.156265,0.281277,-0.000000203077,-17.601977,127.190673)">
<stop offset="0" style="stop-color:rgb(0%,0%,0%);stop-opacity:0.313725;"/>
<stop offset="0.222222" style="stop-color:rgb(0%,0%,0%);stop-opacity:0.27451;"/>
<stop offset="1" style="stop-color:rgb(0%,0%,0%);stop-opacity:0;"/>
</radialGradient>
<radialGradient id="radial3" gradientUnits="userSpaceOnUse" cx="450.908936" cy="189.579361" fx="450.908936" fy="189.579361" r="21.166656" gradientTransform="matrix(0.000000348341,0.156265,-0.281277,0.000000203077,91.692383,-15.054963)">
<stop offset="0" style="stop-color:rgb(0%,0%,0%);stop-opacity:0.313725;"/>
<stop offset="0.222222" style="stop-color:rgb(0%,0%,0%);stop-opacity:0.27451;"/>
<stop offset="1" style="stop-color:rgb(0%,0%,0%);stop-opacity:0;"/>
</radialGradient>
<linearGradient id="linear1" gradientUnits="userSpaceOnUse" x1="1040" y1="1695.118164" x2="1040" y2="175.118134" gradientTransform="matrix(0.0330761,0,0,0.0330761,2.646087,0)">
<stop offset="0" style="stop-color:rgb(100%,43.921569%,26.27451%);stop-opacity:1;"/>
<stop offset="1" style="stop-color:rgb(100%,54.117647%,39.607843%);stop-opacity:1;"/>
</linearGradient>
<linearGradient id="linear2" gradientUnits="userSpaceOnUse" x1="275.166656" y1="-9.916667" x2="275.166656" y2="180.583328" gradientTransform="matrix(1,0,0,1,21.166677,0)">
<stop offset="0" style="stop-color:rgb(74.117647%,74.117647%,74.117647%);stop-opacity:1;"/>
<stop offset="1" style="stop-color:rgb(93.333333%,93.333333%,93.333333%);stop-opacity:1;"/>
</linearGradient>
<linearGradient id="linear3" gradientUnits="userSpaceOnUse" x1="275.166656" y1="-9.916667" x2="275.166656" y2="180.583344" gradientTransform="matrix(0.0694511,0,0,0.0694511,17.934581,31.618758)">
<stop offset="0" style="stop-color:rgb(25.882353%,64.705882%,96.078431%);stop-opacity:1;"/>
<stop offset="1" style="stop-color:rgb(12.941176%,58.823529%,95.294118%);stop-opacity:1;"/>
</linearGradient>
</defs>
<g id="surface1">
<path style=" stroke:none;fill-rule:nonzero;fill:url(#linear0);" d="M 35.0625 55.074219 L 39.03125 55.074219 L 39.03125 58.714844 L 35.0625 58.714844 Z M 35.0625 55.074219 "/>
<path style=" stroke:none;fill-rule:nonzero;fill:url(#radial0);" d="M 39.03125 56.066406 L 44.320312 56.066406 L 44.320312 53.421875 L 39.03125 53.421875 Z M 39.03125 56.066406 "/>
<path style=" stroke:none;fill-rule:nonzero;fill:url(#radial1);" d="M 35.0625 56.066406 L 29.769531 56.066406 L 29.769531 58.714844 L 35.0625 58.714844 Z M 35.0625 56.066406 "/>
<path style=" stroke:none;fill-rule:nonzero;fill:url(#radial2);" d="M 35.0625 56.066406 L 29.769531 56.066406 L 29.769531 53.421875 L 35.0625 53.421875 Z M 35.0625 56.066406 "/>
<path style=" stroke:none;fill-rule:nonzero;fill:url(#radial3);" d="M 39.03125 56.066406 L 44.320312 56.066406 L 44.320312 58.714844 L 39.03125 58.714844 Z M 39.03125 56.066406 "/>
<path style=" stroke:none;fill-rule:nonzero;fill:url(#linear1);" d="M 35.222656 5.96875 C 34.476562 5.972656 33.726562 6.191406 33.070312 6.652344 L 32.882812 6.78125 C 31.132812 8.007812 30.738281 10.445312 32 12.246094 L 36.746094 19.023438 L 11.90625 19.023438 C 9.707031 19.023438 7.9375 20.742188 7.9375 22.878906 L 7.9375 23.105469 C 7.9375 25.242188 9.707031 26.960938 11.90625 26.960938 L 21.824219 26.960938 C 21.804688 26.992188 21.78125 27.023438 21.757812 27.058594 L 8.851562 42.4375 C 7.4375 44.121094 7.617188 46.582031 9.253906 47.957031 L 9.429688 48.101562 C 11.066406 49.476562 13.519531 49.226562 14.933594 47.539062 L 19.179688 42.476562 C 21.332031 50.328125 28.492188 56.066406 37.046875 56.066406 C 47.308594 56.066406 55.566406 47.808594 55.566406 37.546875 C 55.566406 32.546875 53.582031 29.277344 50.410156 24.695312 L 38.503906 7.691406 C 37.714844 6.566406 36.472656 5.964844 35.222656 5.96875 Z M 35.222656 5.96875 "/>
<path style="fill-rule:nonzero;fill:url(#linear2);stroke-width:3;stroke-linecap:square;stroke-linejoin:round;stroke:rgb(12.941177%,12.941177%,12.941177%);stroke-opacity:1;stroke-miterlimit:4;" d="M 296.3467 -9.925834 C 348.935428 -9.925834 391.587605 32.726343 391.587605 85.346318 C 391.587605 137.935046 348.935428 180.587223 296.3467 180.587223 C 243.726725 180.587223 201.074548 137.935046 201.074548 85.346318 C 201.074548 32.726343 243.726725 -9.925834 296.3467 -9.925834 Z M 296.3467 -9.925834 " transform="matrix(0.125012,0,0,0.125012,0,26.877566)"/>
<path style=" stroke:none;fill-rule:nonzero;fill:url(#linear3);" d="M 37.046875 30.929688 C 40.699219 30.929688 43.660156 33.890625 43.660156 37.546875 C 43.660156 41.199219 40.699219 44.160156 37.046875 44.160156 C 33.390625 44.160156 30.429688 41.199219 30.429688 37.546875 C 30.429688 33.890625 33.390625 30.929688 37.046875 30.929688 Z M 37.046875 30.929688 "/>
<path style=" stroke:none;fill-rule:nonzero;fill:rgb(100%,100%,100%);fill-opacity:0.392157;" d="M 35.222656 5.96875 C 34.476562 5.972656 33.726562 6.191406 33.070312 6.652344 L 32.882812 6.78125 C 31.707031 7.605469 31.140625 8.976562 31.285156 10.335938 C 31.394531 9.265625 31.941406 8.257812 32.882812 7.597656 L 33.070312 7.46875 C 33.726562 7.007812 34.476562 6.789062 35.222656 6.785156 C 36.472656 6.78125 37.714844 7.382812 38.503906 8.507812 L 50.410156 25.511719 C 53.496094 29.96875 55.457031 33.183594 55.5625 37.957031 C 55.566406 37.820312 55.566406 37.683594 55.566406 37.546875 C 55.566406 32.546875 53.582031 29.277344 50.410156 24.695312 L 38.503906 7.691406 C 37.714844 6.566406 36.472656 5.964844 35.222656 5.96875 Z M 11.90625 19.023438 C 9.707031 19.023438 7.9375 20.742188 7.9375 22.878906 L 7.9375 23.105469 C 7.9375 23.203125 7.941406 23.304688 7.949219 23.398438 C 8.101562 21.402344 9.808594 19.839844 11.90625 19.839844 L 36.746094 19.839844 L 36.175781 19.023438 Z M 21.152344 27.777344 L 8.851562 42.4375 C 8.117188 43.316406 7.8125 44.402344 7.921875 45.4375 C 8 44.664062 8.308594 43.902344 8.851562 43.253906 L 21.757812 27.875 C 21.78125 27.839844 21.804688 27.808594 21.824219 27.777344 Z M 21.152344 27.777344 "/>
<path style=" stroke:none;fill-rule:nonzero;fill:rgb(0%,0%,0%);fill-opacity:0.235294;" d="M 31.273438 9.609375 C 31.203125 10.507812 31.4375 11.4375 32 12.246094 L 36.304688 18.390625 L 36.746094 18.390625 L 32 11.613281 C 31.566406 10.996094 31.332031 10.304688 31.273438 9.609375 Z M 7.945312 22.675781 C 7.941406 22.742188 7.9375 22.808594 7.9375 22.878906 L 7.9375 23.105469 C 7.9375 25.242188 9.707031 26.960938 11.90625 26.960938 L 21.308594 26.960938 L 21.757812 26.425781 C 21.78125 26.390625 21.804688 26.359375 21.824219 26.328125 L 11.90625 26.328125 C 9.777344 26.328125 8.050781 24.714844 7.945312 22.675781 Z M 55.566406 37.230469 C 55.394531 47.34375 47.199219 55.433594 37.046875 55.433594 C 28.492188 55.433594 21.332031 49.695312 19.179688 41.84375 L 14.933594 46.90625 C 13.519531 48.59375 11.066406 48.84375 9.429688 47.46875 L 9.253906 47.324219 C 8.445312 46.644531 7.992188 45.699219 7.914062 44.710938 C 7.816406 45.917969 8.273438 47.132812 9.253906 47.957031 L 9.429688 48.101562 C 11.066406 49.476562 13.519531 49.226562 14.933594 47.539062 L 19.179688 42.476562 C 21.332031 50.328125 28.492188 56.066406 37.046875 56.066406 C 47.308594 56.066406 55.566406 47.808594 55.566406 37.546875 C 55.566406 37.441406 55.566406 37.335938 55.566406 37.230469 Z M 55.566406 37.230469 "/>
<path style=" stroke:none;fill-rule:nonzero;fill:rgb(12.941177%,12.941177%,12.941177%);fill-opacity:1;" d="M 35.222656 5.78125 C 34.4375 5.785156 33.648438 6.015625 32.960938 6.5 L 32.773438 6.628906 C 30.941406 7.914062 30.53125 10.472656 31.847656 12.351562 L 36.386719 18.835938 L 11.90625 18.835938 C 9.609375 18.835938 7.75 20.636719 7.75 22.878906 L 7.75 23.105469 C 7.75 25.34375 9.609375 27.148438 11.90625 27.148438 L 21.4375 27.148438 L 8.707031 42.316406 C 7.230469 44.078125 7.417969 46.660156 9.132812 48.101562 L 9.308594 48.246094 C 11.023438 49.6875 13.601562 49.421875 15.078125 47.660156 L 19.105469 42.859375 C 21.386719 50.617188 28.53125 56.253906 37.046875 56.253906 C 47.40625 56.253906 55.753906 47.90625 55.753906 37.546875 C 55.753906 32.496094 53.742188 29.171875 50.5625 24.589844 L 38.65625 7.585938 C 37.832031 6.410156 36.53125 5.777344 35.222656 5.78125 Z M 35.226562 6.15625 C 36.414062 6.152344 37.597656 6.722656 38.347656 7.800781 L 50.257812 24.804688 C 53.425781 29.378906 55.378906 32.597656 55.378906 37.546875 C 55.378906 47.707031 47.207031 55.878906 37.046875 55.878906 C 28.578125 55.878906 21.488281 50.199219 19.363281 42.429688 C 19.34375 42.359375 19.289062 42.308594 19.222656 42.292969 C 19.152344 42.28125 19.082031 42.304688 19.039062 42.355469 L 14.789062 47.421875 C 13.4375 49.03125 11.105469 49.265625 9.550781 47.960938 L 9.375 47.8125 C 7.816406 46.507812 7.644531 44.167969 8.996094 42.558594 L 21.902344 27.179688 C 21.90625 27.171875 21.910156 27.167969 21.914062 27.164062 C 21.933594 27.132812 21.957031 27.101562 21.980469 27.066406 C 22.019531 27.011719 22.023438 26.9375 21.992188 26.875 C 21.960938 26.8125 21.894531 26.773438 21.824219 26.773438 L 11.90625 26.773438 C 9.804688 26.773438 8.125 25.136719 8.125 23.105469 L 8.125 22.878906 C 8.125 20.847656 9.804688 19.210938 11.90625 19.210938 L 36.746094 19.210938 C 36.816406 19.210938 36.878906 19.171875 36.914062 19.109375 C 36.945312 19.046875 36.941406 18.972656 36.898438 18.914062 L 32.152344 12.136719 C 30.949219 10.417969 31.324219 8.101562 32.988281 6.9375 L 33.175781 6.804688 C 33.800781 6.367188 34.511719 6.160156 35.226562 6.15625 Z M 35.226562 6.15625 "/>
<path style=" stroke:none;fill-rule:nonzero;fill:rgb(100%,100%,100%);fill-opacity:0.392157;" d="M 37.046875 30.929688 C 33.378906 30.929688 30.429688 33.878906 30.429688 37.546875 C 30.429688 37.65625 30.433594 37.765625 30.4375 37.875 C 30.609375 34.367188 33.492188 31.589844 37.046875 31.589844 C 40.597656 31.589844 43.480469 34.367188 43.652344 37.875 C 43.65625 37.765625 43.660156 37.65625 43.660156 37.546875 C 43.660156 33.878906 40.710938 30.929688 37.046875 30.929688 Z M 37.046875 30.929688 "/>
<path style=" stroke:none;fill-rule:nonzero;fill:rgb(0%,0%,0%);fill-opacity:0.235294;" d="M 37.046875 44.160156 C 33.378906 44.160156 30.429688 41.210938 30.429688 37.546875 C 30.429688 37.433594 30.433594 37.324219 30.4375 37.214844 C 30.609375 40.722656 33.492188 43.5 37.046875 43.5 C 40.597656 43.5 43.480469 40.722656 43.652344 37.214844 C 43.65625 37.324219 43.660156 37.433594 43.660156 37.546875 C 43.660156 41.210938 40.710938 44.160156 37.046875 44.160156 Z M 37.046875 44.160156 "/>
<path style=" stroke:none;fill-rule:nonzero;fill:rgb(12.941177%,12.941177%,12.941177%);fill-opacity:1;" d="M 37.046875 30.742188 C 33.28125 30.742188 30.242188 33.78125 30.242188 37.546875 C 30.242188 41.3125 33.28125 44.347656 37.046875 44.347656 C 40.8125 44.347656 43.847656 41.3125 43.847656 37.546875 C 43.847656 33.78125 40.8125 30.742188 37.046875 30.742188 Z M 37.046875 31.117188 C 40.609375 31.117188 43.472656 33.980469 43.472656 37.546875 C 43.472656 41.109375 40.609375 43.972656 37.046875 43.972656 C 33.480469 43.972656 30.617188 41.109375 30.617188 37.546875 C 30.617188 33.980469 33.480469 31.117188 37.046875 31.117188 Z M 37.046875 31.117188 "/>
</g>
</svg>

<svg xmlns="http://www.w3.org/2000/svg" width="64pt" height="64pt" viewBox="0 0 64 64"><defs><linearGradient id="a" gradientUnits="userSpaceOnUse" x1="254" y1="233.5" x2="254" y2="254.667" gradientTransform="translate(.662 26.878) scale(.12501)"><stop offset="0" stop-opacity=".275"/><stop offset="1" stop-opacity="0"/></linearGradient><radialGradient id="b" gradientUnits="userSpaceOnUse" cx="450.909" cy="189.579" fx="450.909" fy="189.579" r="21.167" gradientTransform="matrix(0 -.15626 -.28128 0 91.692 127.19)"><stop offset="0" stop-opacity=".314"/><stop offset=".222" stop-opacity=".275"/><stop offset="1" stop-opacity="0"/></radialGradient><radialGradient id="c" gradientUnits="userSpaceOnUse" cx="450.909" cy="189.579" fx="450.909" fy="189.579" r="21.167" gradientTransform="matrix(0 .15626 .28128 0 -17.602 -15.055)"><stop offset="0" stop-opacity=".314"/><stop offset=".222" stop-opacity=".275"/><stop offset="1" stop-opacity="0"/></radialGradient><radialGradient id="d" gradientUnits="userSpaceOnUse" cx="450.909" cy="189.579" fx="450.909" fy="189.579" r="21.167" gradientTransform="matrix(0 -.15626 .28128 0 -17.602 127.19)"><stop offset="0" stop-opacity=".314"/><stop offset=".222" stop-opacity=".275"/><stop offset="1" stop-opacity="0"/></radialGradient><radialGradient id="e" gradientUnits="userSpaceOnUse" cx="450.909" cy="189.579" fx="450.909" fy="189.579" r="21.167" gradientTransform="matrix(0 .15626 -.28128 0 91.692 -15.055)"><stop offset="0" stop-opacity=".314"/><stop offset=".222" stop-opacity=".275"/><stop offset="1" stop-opacity="0"/></radialGradient><linearGradient id="f" gradientUnits="userSpaceOnUse" x1="1040" y1="1695.118" x2="1040" y2="175.118" gradientTransform="matrix(.03308 0 0 .03308 2.646 0)"><stop offset="0" stop-color="#ff7043"/><stop offset="1" stop-color="#ff8a65"/></linearGradient><linearGradient id="g" gradientUnits="userSpaceOnUse" x1="275.167" y1="-9.917" x2="275.167" y2="180.583" gradientTransform="translate(21.167)"><stop offset="0" stop-color="#bdbdbd"/><stop offset="1" stop-color="#eee"/></linearGradient><linearGradient id="h" gradientUnits="userSpaceOnUse" x1="275.167" y1="-9.917" x2="275.167" y2="180.583" gradientTransform="translate(17.935 31.619) scale(.06945)"><stop offset="0" stop-color="#42a5f5"/><stop offset="1" stop-color="#2196f3"/></linearGradient></defs><path d="M35.063 55.074h3.968v3.64h-3.968zm0 0" fill="url(#a)"/><path d="M39.031 56.066h5.29v-2.644h-5.29zm0 0" fill="url(#b)"/><path d="M35.063 56.066H29.77v2.649h5.293zm0 0" fill="url(#c)"/><path d="M35.063 56.066H29.77v-2.644h5.293zm0 0" fill="url(#d)"/><path d="M39.031 56.066h5.29v2.649h-5.29zm0 0" fill="url(#e)"/><path d="M35.223 5.969a3.759 3.759 0 0 0-2.153.683l-.187.13c-1.75 1.226-2.145 3.663-.883 5.464l4.746 6.777h-24.84c-2.199 0-3.969 1.72-3.969 3.856v.226c0 2.137 1.77 3.856 3.97 3.856h9.917c-.02.031-.043.062-.066.098L8.852 42.437c-1.415 1.684-1.235 4.145.402 5.52l.176.145c1.636 1.375 4.09 1.125 5.504-.563l4.246-5.062a18.486 18.486 0 0 0 17.867 13.59 18.477 18.477 0 0 0 18.52-18.52c0-5-1.985-8.27-5.157-12.852L38.504 7.691a3.997 3.997 0 0 0-3.281-1.722zm0 0" fill="url(#f)"/><path d="M296.347-9.926c52.588 0 95.24 42.652 95.24 95.272 0 52.589-42.652 95.241-95.24 95.241-52.62 0-95.272-42.652-95.272-95.24 0-52.62 42.652-95.273 95.272-95.273zm0 0" transform="translate(0 26.878) scale(.12501)" fill="url(#g)" stroke-width="3" stroke-linecap="square" stroke-linejoin="round" stroke="#212121"/><path d="M37.047 30.93a6.614 6.614 0 0 1 6.613 6.617 6.613 6.613 0 0 1-6.613 6.613 6.615 6.615 0 1 1 0-13.23zm0 0" fill="url(#h)"/><path d="M35.223 5.969a3.759 3.759 0 0 0-2.153.683l-.187.13c-1.176.823-1.742 2.195-1.598 3.554a3.793 3.793 0 0 1 1.598-2.738l.187-.13a3.759 3.759 0 0 1 2.153-.683 3.997 3.997 0 0 1 3.28 1.723L50.41 25.512c3.086 4.457 5.047 7.672 5.153 12.445.003-.137.003-.273.003-.41 0-5-1.984-8.27-5.156-12.852L38.504 7.691a3.997 3.997 0 0 0-3.281-1.722zM11.906 19.023c-2.199 0-3.969 1.72-3.969 3.856v.226c0 .098.004.2.012.293.153-1.996 1.86-3.558 3.957-3.558h24.84l-.57-.817zm9.246 8.754l-12.3 14.66a4.016 4.016 0 0 0-.93 3 4.026 4.026 0 0 1 .93-2.183l12.906-15.379c.023-.035.047-.066.066-.098zm0 0" fill="#fff" fill-opacity=".392"/><path d="M31.273 9.61A4.05 4.05 0 0 0 32 12.245l4.305 6.145h.441L32 11.613a4.064 4.064 0 0 1-.727-2.004zM7.945 22.675c-.004.066-.008.133-.008.203v.226c0 2.137 1.77 3.856 3.97 3.856h9.402l.449-.535c.023-.035.047-.067.066-.098h-9.918c-2.129 0-3.855-1.613-3.96-3.652zM55.566 37.23a18.484 18.484 0 0 1-18.52 18.204 18.486 18.486 0 0 1-17.866-13.59l-4.246 5.062c-1.414 1.688-3.868 1.938-5.504.563l-.176-.145a3.783 3.783 0 0 1-1.34-2.613 3.811 3.811 0 0 0 1.34 3.246l.176.145c1.636 1.375 4.09 1.125 5.504-.563l4.246-5.062a18.486 18.486 0 0 0 17.867 13.59 18.477 18.477 0 0 0 18.52-18.52v-.317zm0 0" fill-opacity=".235"/><path d="M35.223 5.781a3.941 3.941 0 0 0-2.262.719l-.188.129c-1.832 1.285-2.242 3.844-.925 5.723l4.539 6.484h-24.48c-2.298 0-4.157 1.8-4.157 4.043v.226c0 2.239 1.86 4.043 4.156 4.043h9.531L8.707 42.316c-1.477 1.762-1.289 4.344.426 5.786l.176.144c1.714 1.441 4.293 1.176 5.77-.586l4.026-4.8a18.664 18.664 0 0 0 17.942 13.394 18.672 18.672 0 0 0 18.707-18.707c0-5.05-2.012-8.375-5.191-12.957L38.656 7.586a4.187 4.187 0 0 0-3.433-1.805zm.004.375a3.788 3.788 0 0 1 3.12 1.645l11.91 17.004c3.169 4.574 5.122 7.793 5.122 12.742a18.287 18.287 0 0 1-18.332 18.332 18.29 18.29 0 0 1-17.684-13.45.192.192 0 0 0-.14-.136.197.197 0 0 0-.184.062l-4.25 5.067c-1.351 1.61-3.684 1.844-5.238.539l-.176-.148c-1.559-1.305-1.73-3.645-.379-5.254l12.906-15.38c.004-.007.008-.011.012-.015.02-.031.043-.062.066-.098a.187.187 0 0 0-.156-.293h-9.918c-2.101 0-3.781-1.636-3.781-3.668v-.226c0-2.031 1.68-3.668 3.781-3.668h24.84c.07 0 .133-.04.168-.102a.186.186 0 0 0-.016-.195l-4.746-6.777c-1.203-1.719-.828-4.035.836-5.2l.188-.132a3.582 3.582 0 0 1 2.05-.649zm0 0" fill="#212121"/><path d="M37.047 30.93a6.6 6.6 0 0 0-6.61 6.945 6.604 6.604 0 0 1 6.61-6.285 6.603 6.603 0 0 1 6.605 6.285c.004-.11.008-.219.008-.328a6.6 6.6 0 0 0-6.613-6.617zm0 0" fill="#fff" fill-opacity=".392"/><path d="M37.047 44.16a6.6 6.6 0 0 1-6.61-6.945 6.604 6.604 0 0 0 6.61 6.285 6.603 6.603 0 0 0 6.605-6.285c.004.11.008.219.008.332a6.598 6.598 0 0 1-6.613 6.613zm0 0" fill-opacity=".235"/><path d="M37.047 30.742a6.795 6.795 0 0 0-6.805 6.805c0 3.766 3.04 6.8 6.805 6.8 3.766 0 6.8-3.035 6.8-6.8a6.792 6.792 0 0 0-6.8-6.805zm0 .375a6.41 6.41 0 0 1 6.426 6.43 6.408 6.408 0 0 1-6.426 6.426 6.41 6.41 0 0 1-6.43-6.426 6.41 6.41 0 0 1 6.43-6.43zm0 0" fill="#212121"/></svg>
